src/assets/images/careers/team.svg

<?xml version="1.0" encoding="utf-8"?>
<svg width="150" height="130" viewBox="0 0 150 130" fill="none" xmlns="http://www.w3.org/2000/svg">
<circle cx="50.3948" cy="69.5451" r="44.4835" transform="rotate(-86.4507 50.3948 69.5451)" stroke="#E9ECEE" stroke-width="3" stroke-linecap="round" stroke-linejoin="round" stroke-dasharray="5 10"/>
<rect x="84.2173" y="129.324" width="87.0138" height="92.3047" rx="10" transform="rotate(-135 84.2173 129.324)" fill="url(#paint0_linear)"/>
<path fill-rule="evenodd" clip-rule="evenodd" d="M18.4163 82.5433C18.9586 81.4011 20.584 81.4011 21.1264 82.5433L25.1281 90.9716C25.3461 91.4307 25.7818 91.7483 26.2856 91.8152L35.5063 93.0402C36.7541 93.206 37.2551 94.7423 36.3448 95.6118L29.5896 102.064C29.2241 102.414 29.059 102.923 29.1504 103.42L30.8428 112.625C31.0711 113.867 29.7573 114.818 28.6492 114.213L20.4897 109.762C20.0419 109.518 19.5007 109.518 19.053 109.762L10.8935 114.213C9.78535 114.818 8.47162 113.867 8.69987 112.625L10.3923 103.42C10.4837 102.923 10.3186 102.414 9.95309 102.064L3.19787 95.6118C2.28761 94.7423 2.78857 93.206 4.0364 93.0402L13.2571 91.8152C13.7609 91.7483 14.1965 91.4307 14.4145 90.9716L18.4163 82.5433Z" fill="url(#paint1_linear)"/>
<path fill-rule="evenodd" clip-rule="evenodd" d="M65.8982 82.5433C66.4406 81.4011 68.066 81.4011 68.6083 82.5433L72.6101 90.9716C72.8281 91.4307 73.2637 91.7483 73.7675 91.8152L82.9882 93.0402C84.236 93.206 84.737 94.7423 83.8267 95.6118L77.0715 102.064C76.706 102.414 76.5409 102.923 76.6323 103.42L78.3247 112.625C78.553 113.867 77.2393 114.818 76.1311 114.213L67.9716 109.762C67.5239 109.518 66.9827 109.518 66.5349 109.762L58.3754 114.213C57.2673 114.818 55.9536 113.867 56.1818 112.625L57.8742 103.42C57.9656 102.923 57.8005 102.414 57.435 102.064L50.6798 95.6118C49.7695 94.7423 50.2705 93.206 51.5183 93.0402L60.739 91.8152C61.2428 91.7483 61.6785 91.4307 61.8965 90.9716L65.8982 82.5433Z" fill="url(#paint2_linear)"/>
<path fill-rule="evenodd" clip-rule="evenodd" d="M113.381 82.5433C113.923 81.4011 115.548 81.4011 116.091 82.5433L120.092 90.9716C120.31 91.4307 120.746 91.7483 121.25 91.8152L130.471 93.0402C131.718 93.206 132.219 94.7424 131.309 95.6118L124.554 102.064C124.188 102.414 124.023 102.923 124.115 103.42L125.807 112.625C126.035 113.867 124.722 114.818 123.614 114.213L115.454 109.762C115.006 109.518 114.465 109.518 114.017 109.762L105.858 114.213C104.75 114.818 103.436 113.867 103.664 112.625L105.357 103.42C105.448 102.923 105.283 102.414 104.917 102.064L98.1622 95.6118C97.252 94.7424 97.7529 93.206 99.0008 93.0402L108.221 91.8152C108.725 91.7483 109.161 91.4307 109.379 90.9716L113.381 82.5433Z" fill="url(#paint3_linear)"/>
<path fill-rule="evenodd" clip-rule="evenodd" d="M24.5669 43.202C24.5669 19.627 43.6782 0.515625 67.2533 0.515625C90.8284 0.515625 109.94 19.627 109.94 43.202C109.94 56.4168 103.932 68.2302 94.5071 76.057C93.7708 76.6684 92.7024 76.6653 91.9698 76.0495C88.7108 73.3106 84.706 71.4165 81.2733 69.9447C80.746 69.7186 80.2217 69.4982 79.7135 69.2845C78.6242 68.8266 77.6091 68.3998 76.7971 68.015C76.1934 67.7291 75.6065 67.4231 75.1213 67.0927C74.703 66.8079 74.0416 66.2993 73.7148 65.5019C73.0976 63.9954 72.7554 62.806 72.585 61.5045C72.4255 60.2856 72.4255 59.0125 72.4256 57.4293V57.3286C72.4256 56.1254 72.7963 54.8673 73.2303 53.7719C73.677 52.6443 74.2587 51.5234 74.8185 50.5494C75.3813 49.57 75.9412 48.7058 76.3592 48.0876C76.5689 47.7776 76.7445 47.527 76.8691 47.352C76.9314 47.2645 76.9811 47.1957 77.0161 47.1477L77.0572 47.0914L77.069 47.0754L77.0726 47.0706L77.0738 47.0689C77.074 47.0686 77.0746 47.0678 78.664 48.2467L77.0746 47.0678C77.2736 46.7995 77.5371 46.5861 77.8406 46.4473C77.8449 46.4452 77.8562 46.4397 77.8737 46.4306C77.913 46.4103 77.9824 46.3729 78.0738 46.3173C78.2581 46.2053 78.5215 46.026 78.8042 45.774C79.3707 45.269 79.9683 44.516 80.2307 43.4503C80.3718 42.8769 80.3003 42.1521 80.0772 41.4691C79.9699 41.1408 79.8446 40.8762 79.7421 40.7033C79.7178 40.6624 79.6977 40.6315 79.6826 40.6094C79.0522 40.1013 78.7888 39.2505 79.0411 38.4645C79.8032 36.0902 80.8896 30.9222 79.7407 26.41C79.1799 24.2073 78.1079 22.2389 76.2684 20.7742C74.4268 19.3077 71.6326 18.2004 67.3649 18.0549C67.3271 18.0537 67.2894 18.0513 67.2517 18.0478C67.2515 18.0478 67.252 18.0478 67.2517 18.0478C62.956 18.1951 60.139 19.3041 58.2814 20.7732C56.4262 22.2403 55.3456 24.21 54.779 26.411C53.6179 30.921 54.7033 36.0865 55.4655 38.461C55.7178 39.2469 55.4544 40.0977 54.824 40.6058C54.8089 40.6279 54.7888 40.6588 54.7645 40.6997C54.662 40.8726 54.5367 41.1372 54.4294 41.4655C54.2063 42.1485 54.1348 42.8733 54.2759 43.4467C54.5383 44.5124 55.1359 45.2654 55.7024 45.7705C55.9851 46.0224 56.2485 46.2017 56.4328 46.3138C56.5242 46.3693 56.5936 46.4067 56.6329 46.427C56.6504 46.4361 56.6617 46.4416 56.666 46.4437C56.9695 46.5826 57.233 46.796 57.432 47.0642L55.8426 48.2431C57.432 47.0642 57.4318 47.0639 57.432 47.0642L57.4328 47.0653L57.4376 47.0719L57.4494 47.0879L57.4905 47.1441C57.5255 47.1921 57.5752 47.2609 57.6375 47.3484C57.7621 47.5234 57.9377 47.774 58.1474 48.084C58.5654 48.7022 59.1253 49.5664 59.6881 50.5458C60.2478 51.5198 60.8296 52.6407 61.2763 53.7683C61.7103 54.8637 62.081 56.1219 62.081 57.3251L62.081 57.4257C62.0811 59.009 62.0811 60.282 61.9216 61.501C61.7512 62.8024 61.409 63.9918 60.7918 65.4983C60.465 66.2958 59.8035 66.8044 59.3851 67.0892C58.8999 67.4196 58.3129 67.7256 57.7092 68.0116C56.8972 68.3963 55.8822 68.823 54.793 69.281C54.2846 69.4947 53.7599 69.7153 53.2322 69.9416C49.7991 71.4137 45.7938 73.308 42.5348 76.0476C41.8021 76.6635 40.7336 76.6667 39.9972 76.0551C30.5732 68.2283 24.5669 56.4157 24.5669 43.202ZM54.5034 49.7708C54.4632 49.7474 54.4212 49.7225 54.3776 49.696C54.0276 49.4833 53.5625 49.1648 53.0687 48.7246C52.0826 47.8454 50.9361 46.4367 50.433 44.3926C50.0594 42.875 50.2994 41.3627 50.6674 40.2364C50.8557 39.6601 51.0959 39.127 51.3604 38.6809C51.3701 38.6647 51.38 38.6482 51.3902 38.6312C50.5758 35.6425 49.6758 30.3591 50.9463 25.4243C51.6776 22.5835 53.1487 19.7865 55.8265 17.6689C58.5011 15.5537 62.1976 14.2601 67.1217 14.0923L67.1295 14.092C67.1333 14.0919 67.1377 14.0918 67.1428 14.0916C67.2066 14.0895 67.3737 14.0839 67.574 14.1022C72.4349 14.2796 76.0881 15.5715 78.7337 17.6781C81.395 19.7972 82.8532 22.5948 83.576 25.4334C84.8318 30.3654 83.9308 35.6465 83.1164 38.6348C83.1266 38.6518 83.1366 38.6683 83.1462 38.6845C83.4107 39.1305 83.6509 39.6637 83.8392 40.24C84.2072 41.3663 84.4472 42.8786 84.0736 44.3962C83.5705 46.4403 82.424 47.849 81.4378 48.7282C80.9441 49.1684 80.479 49.4868 80.129 49.6996C80.0854 49.7261 80.0434 49.751 80.0032 49.7744C79.9043 49.9149 79.7802 50.0938 79.6376 50.3046C79.257 50.8675 78.752 51.6476 78.2499 52.5213C77.7448 53.4003 77.2617 54.3412 76.9097 55.2296C76.545 56.1501 76.3833 56.8621 76.3833 57.3286C76.3833 59.0381 76.3868 60.0554 76.5092 60.9909C76.6174 61.8173 76.826 62.6204 77.2867 63.7777C77.3045 63.7907 77.3251 63.8053 77.3488 63.8214C77.5789 63.9781 77.9473 64.1806 78.4915 64.4384C79.2237 64.7853 80.1023 65.1546 81.1351 65.5886C81.6608 65.8095 82.2264 66.0472 82.833 66.3073C85.9081 67.6258 89.7552 69.4045 93.1863 71.967C101.046 64.8763 105.982 54.6164 105.982 43.202C105.982 21.8127 88.6426 4.4733 67.2533 4.4733C45.864 4.4733 28.5246 21.8127 28.5246 43.202C28.5246 54.6153 33.4594 64.8744 41.3182 71.965C44.7494 69.402 48.597 67.6229 51.6725 66.3042C52.2795 66.0439 52.8454 65.8061 53.3714 65.5851C54.4041 65.1511 55.2826 64.7819 56.0147 64.435C56.5591 64.1771 56.9276 63.9746 57.1577 63.8179C57.1815 63.8017 57.2021 63.7871 57.2199 63.7741C57.6806 62.6168 57.8892 61.8137 57.9974 60.9873C58.1198 60.0518 58.1233 59.0345 58.1233 57.3251C58.1233 56.8585 57.9616 56.1465 57.5969 55.226C57.2449 54.3376 56.7618 53.3967 56.2567 52.5177C55.7546 51.6441 55.2496 50.8639 54.8689 50.301C54.7264 50.0903 54.6023 49.9113 54.5034 49.7708ZM54.855 40.5636C54.8601 40.5575 54.8594 40.559 54.8527 40.5664C54.8537 40.5652 54.8544 40.5643 54.855 40.5636ZM79.6516 40.5672C79.6522 40.5679 79.653 40.5688 79.654 40.5701C79.6472 40.5626 79.6465 40.561 79.6516 40.5672Z" fill="url(#paint4_linear)"/>
<path d="M67.2517 18.0478C67.2894 18.0513 67.3271 18.0537 67.3649 18.0549C71.6326 18.2004 74.4268 19.3077 76.2684 20.7742C78.1079 22.2389 79.1799 24.2073 79.7407 26.41C80.8896 30.9222 79.8032 36.0902 79.0411 38.4645C78.7888 39.2505 79.0522 40.1013 79.6826 40.6094C79.6977 40.6315 79.7178 40.6624 79.7421 40.7033C79.8446 40.8762 79.9699 41.1408 80.0772 41.4691C80.3003 42.1521 80.3718 42.8769 80.2307 43.4503C79.9683 44.516 79.3707 45.269 78.8042 45.774C78.5215 46.026 78.2581 46.2053 78.0738 46.3173C77.9824 46.3729 77.913 46.4103 77.8737 46.4306C77.8562 46.4397 77.8449 46.4452 77.8406 46.4473C77.5371 46.5861 77.2736 46.7995 77.0746 47.0678L78.664 48.2467C77.0746 47.0678 77.074 47.0686 77.0738 47.0689L77.0726 47.0706L77.069 47.0754L77.0572 47.0914L77.0161 47.1477C76.9811 47.1957 76.9314 47.2645 76.8691 47.352C76.7445 47.527 76.5689 47.7776 76.3592 48.0876C75.9412 48.7058 75.3813 49.57 74.8185 50.5494C74.2587 51.5234 73.677 52.6443 73.2303 53.7719C72.7963 54.8673 72.4256 56.1254 72.4256 57.3286V57.4293C72.4255 59.0125 72.4255 60.2856 72.585 61.5045C72.7554 62.806 73.0976 63.9954 73.7148 65.5019C74.0416 66.2993 74.703 66.8079 75.1213 67.0927C75.6065 67.4231 76.1934 67.7291 76.7971 68.015C77.6091 68.3998 78.6242 68.8266 79.7135 69.2845C80.2217 69.4982 80.746 69.7186 81.2733 69.9447C84.706 71.4165 88.7108 73.3106 91.9698 76.0495C92.7024 76.6653 93.7708 76.6684 94.5071 76.057C103.932 68.2302 109.94 56.4168 109.94 43.202C109.94 19.627 90.8284 0.515625 67.2533 0.515625C43.6782 0.515625 24.5669 19.627 24.5669 43.202C24.5669 56.4157 30.5732 68.2283 39.9972 76.0551C40.7336 76.6667 41.8021 76.6635 42.5348 76.0476C45.7938 73.308 49.7991 71.4137 53.2322 69.9416C53.7599 69.7153 54.2846 69.4947 54.793 69.281C55.8822 68.823 56.8972 68.3963 57.7092 68.0116C58.3129 67.7256 58.8999 67.4196 59.3851 67.0892C59.8035 66.8044 60.465 66.2958 60.7918 65.4983C61.409 63.9918 61.7512 62.8024 61.9216 61.501C62.0811 60.282 62.0811 59.009 62.081 57.4257L62.081 57.3251C62.081 56.1219 61.7103 54.8637 61.2763 53.7683C60.8296 52.6407 60.2478 51.5198 59.6881 50.5458C59.1253 49.5664 58.5654 48.7022 58.1474 48.084C57.9377 47.774 57.7621 47.5234 57.6375 47.3484C57.5752 47.2609 57.5255 47.1921 57.4905 47.1441L57.4494 47.0879L57.4376 47.0719L57.4328 47.0653L57.432 47.0642M67.2517 18.0478C67.252 18.0478 67.2515 18.0478 67.2517 18.0478ZM67.2517 18.0478C62.956 18.1951 60.139 19.3041 58.2814 20.7732C56.4262 22.2403 55.3456 24.21 54.779 26.411C53.6179 30.921 54.7033 36.0865 55.4655 38.461C55.7178 39.2469 55.4544 40.0977 54.824 40.6058C54.8089 40.6279 54.7888 40.6588 54.7645 40.6997C54.662 40.8726 54.5367 41.1372 54.4294 41.4655C54.2063 42.1485 54.1348 42.8733 54.2759 43.4467C54.5383 44.5124 55.1359 45.2654 55.7024 45.7705C55.9851 46.0224 56.2485 46.2017 56.4328 46.3138C56.5242 46.3693 56.5936 46.4067 56.6329 46.427C56.6504 46.4361 56.6617 46.4416 56.666 46.4437C56.9695 46.5826 57.233 46.796 57.432 47.0642M57.432 47.0642L55.8426 48.2431C57.432 47.0642 57.4318 47.0639 57.432 47.0642ZM57.3162 63.6961C57.3165 63.6961 57.3132 63.6996 57.3054 63.7066M77.1904 63.6997C77.1906 63.6997 77.1945 63.7031 77.2012 63.7102M54.3776 49.696C54.4212 49.7225 54.4632 49.7474 54.5034 49.7708C54.6023 49.9113 54.7264 50.0903 54.8689 50.301C55.2496 50.8639 55.7546 51.6441 56.2567 52.5177C56.7618 53.3967 57.2449 54.3376 57.5969 55.226C57.9616 56.1465 58.1233 56.8585 58.1233 57.3251C58.1233 59.0345 58.1198 60.0518 57.9974 60.9873C57.8892 61.8137 57.6806 62.6168 57.2199 63.7741C57.2021 63.7871 57.1815 63.8017 57.1577 63.8179C56.9276 63.9746 56.5591 64.1771 56.0147 64.435C55.2826 64.7819 54.4041 65.1511 53.3714 65.5851C52.8454 65.8061 52.2795 66.0439 51.6725 66.3042C48.597 67.6229 44.7494 69.402 41.3182 71.965C33.4594 64.8744 28.5246 54.6153 28.5246 43.202C28.5246 21.8127 45.864 4.4733 67.2533 4.4733C88.6426 4.4733 105.982 21.8127 105.982 43.202C105.982 54.6164 101.046 64.8763 93.1863 71.967C89.7552 69.4045 85.9081 67.6258 82.833 66.3073C82.2264 66.0472 81.6608 65.8095 81.1351 65.5886C80.1023 65.1546 79.2237 64.7853 78.4915 64.4384C77.9473 64.1806 77.5789 63.9781 77.3488 63.8214C77.3251 63.8053 77.3045 63.7907 77.2867 63.7777C76.826 62.6204 76.6174 61.8173 76.5092 60.9909C76.3868 60.0554 76.3833 59.0381 76.3833 57.3286C76.3833 56.8621 76.545 56.1501 76.9097 55.2296C77.2617 54.3412 77.7448 53.4003 78.2499 52.5213C78.752 51.6476 79.257 50.8675 79.6376 50.3046C79.7802 50.0938 79.9043 49.9149 80.0032 49.7744C80.0434 49.751 80.0854 49.7261 80.129 49.6996C80.479 49.4868 80.9441 49.1684 81.4378 48.7282C82.424 47.849 83.5705 46.4403 84.0736 44.3962C84.4472 42.8786 84.2072 41.3663 83.8392 40.24C83.6509 39.6637 83.4107 39.1305 83.1462 38.6845C83.1366 38.6683 83.1266 38.6518 83.1164 38.6348C83.9308 35.6465 84.8318 30.3654 83.576 25.4334C82.8532 22.5948 81.395 19.7972 78.7337 17.6781C76.0881 15.5715 72.4349 14.2796 67.574 14.1022C67.3737 14.0839 67.2066 14.0895 67.1428 14.0916C67.1377 14.0918 67.1333 14.0919 67.1295 14.092L67.1217 14.0923C62.1976 14.2601 58.5011 15.5537 55.8265 17.6689C53.1487 19.7865 51.6776 22.5835 50.9463 25.4243C49.6758 30.3591 50.5758 35.6425 51.3902 38.6312C51.38 38.6482 51.3701 38.6647 51.3604 38.6809C51.0959 39.127 50.8557 39.6601 50.6674 40.2364C50.2994 41.3627 50.0594 42.875 50.433 44.3926C50.9361 46.4367 52.0826 47.8454 53.0687 48.7246C53.5625 49.1648 54.0276 49.4833 54.3776 49.696ZM54.855 40.5636C54.8601 40.5575 54.8594 40.559 54.8527 40.5664C54.8537 40.5652 54.8544 40.5643 54.855 40.5636ZM79.6516 40.5672C79.6522 40.5679 79.653 40.5688 79.654 40.5701C79.6472 40.5626 79.6465 40.561 79.6516 40.5672Z" stroke="url(#paint5_linear)" stroke-linejoin="round"/>
<defs>
<linearGradient id="paint0_linear" x1="253.219" y1="153.083" x2="102.246" y2="131.937" gradientUnits="userSpaceOnUse">
<stop stop-color="#5CDBDD" stop-opacity="0.03"/>
<stop offset="1" stop-color="#5CDBDD" stop-opacity="0.21"/>
</linearGradient>
<linearGradient id="paint1_linear" x1="38.6059" y1="79.6895" x2="-2.87793" y2="104.274" gradientUnits="userSpaceOnUse">
<stop stop-color="#1F3D56"/>
<stop offset="1" stop-color="#335878"/>
</linearGradient>
<linearGradient id="paint2_linear" x1="86.0878" y1="79.6895" x2="44.604" y2="104.274" gradientUnits="userSpaceOnUse">
<stop stop-color="#1F3D56"/>
<stop offset="1" stop-color="#335878"/>
</linearGradient>
<linearGradient id="paint3_linear" x1="133.57" y1="79.6895" x2="92.0864" y2="104.274" gradientUnits="userSpaceOnUse">
<stop stop-color="#1F3D56"/>
<stop offset="1" stop-color="#335878"/>
</linearGradient>
<linearGradient id="paint4_linear" x1="109.94" y1="0.515625" x2="19.5526" y2="58.0726" gradientUnits="userSpaceOnUse">
<stop stop-color="#1F3D56"/>
<stop offset="1" stop-color="#335878"/>
</linearGradient>
<linearGradient id="paint5_linear" x1="117.503" y1="1.60763" x2="27.1156" y2="59.1646" gradientUnits="userSpaceOnUse">
<stop stop-color="#1F3D56"/>
<stop offset="1" stop-color="#335878"/>
</linearGradient>
</defs>
</svg>

<svg width="150" height="130" fill="none" xmlns="http://www.w3.org/2000/svg"><circle cx="50.395" cy="69.545" r="44.483" transform="rotate(-86.45 50.395 69.545)" stroke="#E9ECEE" stroke-width="3" stroke-linecap="round" stroke-linejoin="round" stroke-dasharray="5 10"/><rect x="84.217" y="129.324" width="87.014" height="92.305" rx="10" transform="rotate(-135 84.217 129.324)" fill="url(#paint0_linear)"/><path fill-rule="evenodd" clip-rule="evenodd" d="M18.416 82.543c.543-1.142 2.168-1.142 2.71 0l4.002 8.429a1.5 1.5 0 001.158.843l9.22 1.225c1.248.166 1.75 1.702.839 2.572l-6.755 6.452c-.366.35-.531.859-.44 1.356l1.693 9.205c.228 1.242-1.086 2.193-2.194 1.588l-8.16-4.451a1.501 1.501 0 00-1.436 0l-8.16 4.451c-1.108.605-2.421-.346-2.193-1.588l1.692-9.205a1.5 1.5 0 00-.439-1.356l-6.755-6.452c-.91-.87-.41-2.406.838-2.572l9.221-1.225a1.5 1.5 0 001.158-.843l4.001-8.429z" fill="url(#paint1_linear)"/><path fill-rule="evenodd" clip-rule="evenodd" d="M65.898 82.543c.543-1.142 2.168-1.142 2.71 0l4.002 8.429a1.5 1.5 0 001.157.843l9.221 1.225c1.248.166 1.749 1.702.839 2.572l-6.755 6.452c-.366.35-.531.859-.44 1.356l1.693 9.205c.228 1.242-1.086 2.193-2.194 1.588l-8.16-4.451a1.501 1.501 0 00-1.436 0l-8.16 4.451c-1.108.605-2.421-.346-2.193-1.588l1.692-9.205a1.501 1.501 0 00-.439-1.356l-6.755-6.452c-.91-.87-.41-2.406.838-2.572l9.221-1.225a1.5 1.5 0 001.158-.843l4.001-8.429z" fill="url(#paint2_linear)"/><path fill-rule="evenodd" clip-rule="evenodd" d="M113.381 82.543c.542-1.142 2.167-1.142 2.71 0l4.001 8.429a1.5 1.5 0 001.158.843l9.221 1.225c1.247.166 1.748 1.702.838 2.572l-6.755 6.452c-.366.35-.531.859-.439 1.356l1.692 9.205c.228 1.242-1.085 2.193-2.193 1.588l-8.16-4.451a1.502 1.502 0 00-1.437 0l-8.159 4.451c-1.108.605-2.422-.346-2.194-1.588l1.693-9.205a1.501 1.501 0 00-.44-1.356l-6.755-6.452c-.91-.87-.41-2.406.839-2.572l9.22-1.225a1.5 1.5 0 001.158-.843l4.002-8.429z" fill="url(#paint3_linear)"/><path fill-rule="evenodd" clip-rule="evenodd" d="M24.567 43.202C24.567 19.627 43.678.516 67.253.516s42.687 19.111 42.687 42.686c0 13.215-6.008 25.028-15.433 32.855a1.979 1.979 0 01-2.537-.008c-3.26-2.738-7.264-4.633-10.697-6.104-.527-.226-1.051-.447-1.56-.66-1.089-.458-2.104-.885-2.916-1.27-.604-.286-1.19-.592-1.676-.922-.418-.285-1.08-.794-1.406-1.591-.617-1.507-.96-2.696-1.13-3.997-.16-1.22-.16-2.492-.16-4.076v-.1c0-1.204.371-2.462.805-3.557.447-1.128 1.029-2.249 1.588-3.223a40.431 40.431 0 012.198-3.401l.041-.057.012-.016.004-.004v-.002c.001 0 .002-.001 1.591 1.178l-1.59-1.18c.2-.267.463-.48.767-.62l.033-.016a5.071 5.071 0 00.93-.657c.567-.505 1.164-1.258 1.427-2.324.14-.573.07-1.298-.154-1.98a3.967 3.967 0 00-.335-.767 1.763 1.763 0 00-.06-.094 1.979 1.979 0 01-.64-2.145c.761-2.374 1.848-7.542.699-12.054-.561-2.203-1.633-4.171-3.473-5.636-1.841-1.466-4.635-2.574-8.903-2.72a1.863 1.863 0 01-.113-.006c-4.296.147-7.113 1.256-8.97 2.725-1.856 1.467-2.936 3.437-3.503 5.638-1.161 4.51-.076 9.675.686 12.05a1.979 1.979 0 01-.641 2.145 1.763 1.763 0 00-.06.094 3.967 3.967 0 00-.335.765c-.223.683-.294 1.408-.153 1.982.262 1.065.86 1.818 1.426 2.323.283.252.547.432.73.544.092.055.162.093.2.113l.034.017c.303.139.567.352.766.62l-1.59 1.18 1.59-1.18v.001l.006.007.011.016.041.056.148.204a40.431 40.431 0 012.05 3.197c.56.975 1.142 2.096 1.588 3.223.434 1.096.805 2.354.805 3.557v.1c0 1.584 0 2.857-.16 4.076-.17 1.301-.512 2.49-1.13 3.997-.326.798-.987 1.306-1.406 1.591-.485.33-1.072.637-1.676.923-.812.384-1.827.811-2.916 1.269-.508.214-1.033.434-1.56.66-3.434 1.473-7.44 3.367-10.698 6.107a1.979 1.979 0 01-2.538.007c-9.424-7.827-15.43-19.64-15.43-32.853zm29.936 6.569a9.028 9.028 0 01-1.435-1.046c-.985-.88-2.132-2.288-2.635-4.332-.374-1.518-.134-3.03.234-4.157.189-.576.429-1.109.693-1.555l.03-.05c-.814-2.989-1.714-8.272-.444-13.207.732-2.84 2.203-5.637 4.88-7.755 2.675-2.115 6.372-3.409 11.296-3.577h.021c.064-.003.23-.008.431.01 4.86.178 8.514 1.47 11.16 3.576 2.661 2.12 4.12 4.917 4.842 7.755 1.256 4.932.355 10.214-.46 13.202l.03.05c.265.445.505.979.693 1.555.368 1.126.608 2.639.235 4.156-.504 2.044-1.65 3.453-2.636 4.332a9.03 9.03 0 01-1.435 1.046 36.498 36.498 0 00-1.753 2.747c-.505.88-.988 1.82-1.34 2.709-.365.92-.527 1.632-.527 2.099 0 1.71.004 2.726.126 3.662.108.826.317 1.63.778 2.787l.062.043c.23.157.598.36 1.142.617.733.347 1.611.717 2.644 1.15.526.222 1.091.46 1.698.72 3.075 1.318 6.922 3.096 10.353 5.659 7.86-7.09 12.796-17.35 12.796-28.765 0-21.39-17.34-38.729-38.729-38.729s-38.728 17.34-38.728 38.729c0 11.413 4.934 21.672 12.793 28.763 3.431-2.563 7.279-4.342 10.355-5.66.606-.261 1.172-.499 1.698-.72 1.033-.434 1.912-.803 2.644-1.15.544-.258.913-.46 1.143-.617l.062-.044c.46-1.157.67-1.96.777-2.787.123-.935.126-1.953.126-3.662 0-.467-.161-1.178-.526-2.099-.352-.888-.835-1.83-1.34-2.708a36.475 36.475 0 00-1.754-2.747zm.352-9.207a.102.102 0 01-.002.002l.002-.002zm24.797.003l.002.003c-.007-.007-.007-.009-.002-.003z" fill="url(#paint4_linear)"/><path d="M67.252 18.048c.037.003.075.006.113.007 4.268.145 7.062 1.253 8.903 2.72 1.84 1.464 2.912 3.432 3.473 5.635 1.149 4.512.062 9.68-.7 12.055a1.979 1.979 0 00.642 2.144l.06.094c.102.173.227.438.334.766.223.683.295 1.408.154 1.981-.263 1.066-.86 1.819-1.427 2.324a5.071 5.071 0 01-.73.543c-.092.056-.161.093-.2.114l-.033.016a1.978 1.978 0 00-.766.62l1.589 1.18a331.969 331.969 0 00-1.59-1.178l-.001.002-.004.004-.012.016-.04.057a37.639 37.639 0 00-.657.94 40.431 40.431 0 00-1.541 2.461c-.56.974-1.142 2.095-1.589 3.223-.434 1.095-.804 2.353-.804 3.557v.1c0 1.584 0 2.857.159 4.075.17 1.302.513 2.491 1.13 3.998.327.797.988 1.306 1.406 1.59.486.331 1.072.637 1.676.923.812.385 1.827.812 2.916 1.27.509.213 1.033.434 1.56.66 3.433 1.472 7.438 3.366 10.697 6.105a1.979 1.979 0 002.537.007c9.425-7.827 15.433-19.64 15.433-32.855C109.94 19.627 90.828.516 67.253.516S24.567 19.627 24.567 43.202c0 13.214 6.006 25.026 15.43 32.853a1.979 1.979 0 002.538-.007c3.259-2.74 7.264-4.634 10.697-6.106.528-.227 1.053-.447 1.561-.661 1.09-.458 2.104-.885 2.916-1.27.604-.285 1.19-.591 1.676-.922.419-.285 1.08-.793 1.407-1.59.617-1.507.96-2.697 1.13-3.998.16-1.219.16-2.492.159-4.075v-.1c0-1.204-.37-2.462-.805-3.558-.446-1.127-1.028-2.248-1.588-3.222a40.431 40.431 0 00-2.198-3.402l-.04-.056-.012-.016-.005-.007h-.001m9.82-29.017s0 0 0 0zm0 0c-4.296.147-7.113 1.256-8.97 2.725-1.856 1.467-2.936 3.437-3.503 5.638-1.161 4.51-.076 9.675.686 12.05a1.979 1.979 0 01-.641 2.145 1.763 1.763 0 00-.06.094 3.967 3.967 0 00-.335.765c-.223.683-.294 1.408-.153 1.982.262 1.065.86 1.818 1.426 2.323.283.252.547.432.73.544.092.055.162.093.2.113l.034.017c.303.139.567.352.766.62m0 0l-1.59 1.18 1.59-1.18zm-.116 16.632l-.01.01M77.19 63.7s.005.003.011.01M54.378 49.696a7.7 7.7 0 00.125.075 36.475 36.475 0 011.753 2.747c.506.879.989 1.82 1.34 2.708.366.92.527 1.633.527 2.1 0 1.709-.003 2.726-.126 3.661-.108.827-.316 1.63-.777 2.787a2.292 2.292 0 01-.062.044c-.23.157-.599.36-1.143.617-.732.347-1.61.716-2.644 1.15-.526.221-1.092.459-1.699.72-3.075 1.318-6.923 3.097-10.354 5.66-7.859-7.09-12.793-17.35-12.793-28.763 0-21.39 17.339-38.729 38.728-38.729 21.39 0 38.729 17.34 38.729 38.729 0 11.414-4.936 21.674-12.796 28.765-3.43-2.563-7.278-4.341-10.353-5.66-.607-.26-1.172-.498-1.698-.718-1.033-.434-1.911-.804-2.644-1.15-.544-.258-.912-.46-1.142-.618a2.225 2.225 0 01-.062-.043c-.461-1.158-.67-1.96-.778-2.787-.122-.936-.126-1.953-.126-3.662 0-.467.162-1.179.527-2.1.352-.888.835-1.829 1.34-2.708a36.498 36.498 0 011.753-2.747 9.03 9.03 0 001.435-1.046c.986-.879 2.132-2.288 2.636-4.332.373-1.517.133-3.03-.235-4.156a7.893 7.893 0 00-.693-1.556l-.03-.05c.815-2.987 1.716-8.269.46-13.2-.723-2.84-2.181-5.637-4.842-7.756-2.646-2.107-6.3-3.398-11.16-3.576-.2-.018-.367-.013-.431-.01h-.021c-4.924.168-8.62 1.462-11.295 3.577-2.678 2.117-4.15 4.915-4.88 7.755-1.271 4.935-.371 10.218.443 13.207l-.03.05c-.264.446-.504.98-.693 1.555-.368 1.127-.608 2.639-.234 4.157.503 2.044 1.65 3.452 2.636 4.332.493.44.959.758 1.309.971zm.477-9.132a.102.102 0 01-.002.002l.002-.002zm24.797.003l.002.003c-.007-.007-.007-.009-.002-.003z" stroke="url(#paint5_linear)" stroke-linejoin="round"/><defs><linearGradient id="paint0_linear" x1="253.219" y1="153.083" x2="102.246" y2="131.937" gradientUnits="userSpaceOnUse"><stop stop-color="#5CDBDD" stop-opacity=".03"/><stop offset="1" stop-color="#5CDBDD" stop-opacity=".21"/></linearGradient><linearGradient id="paint1_linear" x1="38.606" y1="79.689" x2="-2.878" y2="104.274" gradientUnits="userSpaceOnUse"><stop stop-color="#1F3D56"/><stop offset="1" stop-color="#335878"/></linearGradient><linearGradient id="paint2_linear" x1="86.088" y1="79.689" x2="44.604" y2="104.274" gradientUnits="userSpaceOnUse"><stop stop-color="#1F3D56"/><stop offset="1" stop-color="#335878"/></linearGradient><linearGradient id="paint3_linear" x1="133.57" y1="79.689" x2="92.086" y2="104.274" gradientUnits="userSpaceOnUse"><stop stop-color="#1F3D56"/><stop offset="1" stop-color="#335878"/></linearGradient><linearGradient id="paint4_linear" x1="109.94" y1=".516" x2="19.553" y2="58.073" gradientUnits="userSpaceOnUse"><stop stop-color="#1F3D56"/><stop offset="1" stop-color="#335878"/></linearGradient><linearGradient id="paint5_linear" x1="117.503" y1="1.608" x2="27.116" y2="59.165" gradientUnits="userSpaceOnUse"><stop stop-color="#1F3D56"/><stop offset="1" stop-color="#335878"/></linearGradient></defs></svg>
